X: 71
T: Missa De virginibus / Sanctus
N: Derived from Rue1015d-Missa_De_virginibus-Sanctus.krn
C: Pierre de la Rue
%%abc-version 2.0
%%abcx-abcm2ps-target-version 5.9.1 (29 Sep 2008)
%%abc-creator hum2abc beta
%%abcx-conversion-date 2019/02/17 08:01:12
%%abc-edited-by Jesse Rodin
%%abc-edited-by Chris Gage 06-24-2013
%%abcx-initial-encoding-date 2013/08/05/
%%humdrum-veritas 802963687
%%humdrum-veritas-data 2093873607
%%linebreak <none>
%%barnumbers 0
L: 1/4
M: 3/1
Q: 1/2=120
%%staves [1 2 3 4]
V: 1 clef=treble
V: 2 clef=treble-8
V: 3 clef=treble-8
V: 4 clef=bass
K: C
[V:1] z12 | 
[V:2] f8f3g | 
[V:3] z12 | 
[V:4] F,6E,2D,4 | 
[V:1] c8c3d | 
[V:2] e8z4 | 
[V:3] c6B2A4 | 
[V:4] C,8z4 | 
[V:1] B8z4 | 
[V:2] g4gfede4 | 
[V:3] G8z4 | 
[V:4] G,8C,4 | 
[V:1] d4dcBAB4 | 
[V:2] d2g3ff4e2 | 
[V:3] d8G4 | 
[V:4] G,3A,_B,A,G,F,G,4 | 
[V:1] A2d4c4B2 | 
[V:2] f4z4z4 | 
[V:3] d3efedcd4 | 
[V:4] F,2_B,4A,2G,4 | 
[V:1] c4z4z4 | 
[V:2] z2f3efde2f2 | 
[V:3] c4z4z4 | 
[V:4] C,2F,2F,G,A,_B,G,2F,2 | 
[V:1] z2c3BcAB2c2 | 
[V:2] g2a3gafg2c2 | 
[V:3] z2c3decd2e2 | 
[V:4] C4A,4G,2C2 | 
[V:1] d2e3decd2G2 | 
[V:2] g4z4z2g2- | 
[V:3] d2c3BcAB4- | 
[V:4] B,2C2A,4G,4 | 
[V:1] d4z2d4d2 | 
[V:2] g2g2g8 | 
[V:3] B4d2B2dcBA | 
[V:4] z2G,4G,2G,4- | 
[V:1] d4e4e2c2- | 
[V:2] g4e3fg2a2- | 
[V:3] B4c8 | 
[V:4] G,4C,3D,E,2F,2- | 
[V:1] c2c2d2f3ee2 | 
[V:2] a2g2a2f2g4 | 
[V:3] c4z4z2c2- | 
[V:4] F,2E,2D,4C,4 | 
[V:1] f3ed2c2_B4 | 
[V:2] f8z4 | 
[V:3] c2c2d2f4e2 | 
[V:4] F,8G,4 | 
[V:1] A8_B4 | 
[V:2] z2c4c2d4 | 
[V:3] f8f4 | 
[V:4] F,8_B,,4 | 
[V:1] A8F4 | 
[V:2] c2A4A2_B4 | 
[V:3] z2c4c2d4 | 
[V:4] F,8_B,,4 | 
[V:1] E2c3BAGF2E2 | 
[V:2] G4F4z4 | 
[V:3] c4A8 | 
[V:4] C,4z2F,3E,D,C, | 
[V:1] D4D4E4 | 
[V:2] f6edcdef | 
[V:3] _B8G4 | 
[V:4] _B,,8C,4 | 
[V:1] z2E2F2A3FGA | 
[V:2] g2c2c4z4 | 
[V:3] z2G2A2c3ABc | 
[V:4] C,4z4z4 | 
[V:1] F2E2z2E2F2A2- | 
[V:2] z4z2c2c4 | 
[V:3] A2G2z2G2A2c2- | 
[V:4] z2C,2C,4z4 | 
[V:1] AFGAF2E2A4 | 
[V:2] z4z2e2f3e | 
[V:3] cABcA2G2z2A2 | 
[V:4] z4z2C,2D,2F,2- | 
[V:1] A2G4F3EE2 | 
[V:2] dcc4B2c4- | 
[V:3] F2G2A2F2G4 | 
[V:4] F,2E,2D,4C,4 | 
[V:1] F12 ||  
[V:2] c12 ||  
[V:3] F12 ||  
[V:4] F,12 ||  
[V:1]  [K:C] [K:clef=treble][M:2/1]z8 | 
[V:2]  [K:C] [K:clef=treble-8][M:2/1]f4f2e2- | 
[V:3]  [K:C] [K:clef=treble-8][M:2/1]z8 | 
[V:4]  [K:C] [K:clef=bass][M:2/1]z8 | 
[V:1] z8 | 
[V:2] e2dcd2c2- | 
[V:3] z8 | 
[V:4] z4F,4 | 
[V:1] z8 | 
[V:2] c2g4fe | 
[V:3] z8 | 
[V:4] F,2E,4D,C, | 
[V:1] z8 | 
[V:2] f2g2e4 | 
[V:3] z8 | 
[V:4] D,2C,4G,2- | 
[V:1] z8 | 
[V:2] d4z2g2- | 
[V:3] z8 | 
[V:4] G,2F,E,F,2G,2 | 
[V:1] z8 | 
[V:2] g2fef2g2 | 
[V:3] z8 | 
[V:4] E,4D,2G,2- | 
[V:1] z8 | 
[V:2] e2d2z2d2- | 
[V:3] z8 | 
[V:4] G,2F,E,F,2G,2 | 
[V:1] z8 | 
[V:2] dcdef3e | 
[V:3] z8 | 
[V:4] E,2D,2A,3G, | 
[V:1] z8 | 
[V:2] c2e2d4 | 
[V:3] z8 | 
[V:4] A,B,C4B,2 | 
[V:1] z8 | 
[V:2] c4z2c2- | 
[V:3] z8 | 
[V:4] C8 | 
[V:1] z8 | 
[V:2] c2d2e2f2- | 
[V:3] z8 | 
[V:4] z8 | 
[V:1] z8 | 
[V:2] fed2c4 | 
[V:3] z8 | 
[V:4] z2F,4G,2 | 
[V:1] z8 | 
[V:2] f8 | 
[V:3] z8 | 
[V:4] A,2_B,4A,G, | 
[V:1] z8 | 
[V:2] f4e4 | 
[V:3] z8 | 
[V:4] F,2A,2G,4 | 
[V:1] z8 | 
[V:2] a4a2g2- | 
[V:3] z8 | 
[V:4] F,4C4 | 
[V:1] z8 | 
[V:2] g2e2f2g2 | 
[V:3] z8 | 
[V:4] B,2C2A,2B,2 | 
[V:1] z8 | 
[V:2] e2a4g2- | 
[V:3] z8 | 
[V:4] C2F,2C4 | 
[V:1] z8 | 
[V:2] g2e2f2g2 | 
[V:3] z8 | 
[V:4] B,2C2A,2B,2 | 
[V:1] z8 | 
[V:2] c3ed2c2- | 
[V:3] z8 | 
[V:4] C2F,4A,2 | 
[V:1] z8 | 
[V:2] c2B2A2c2- | 
[V:3] z8 | 
[V:4] G,4F,2A,2- | 
[V:1] z8 | 
[V:2] cBA2G4 | 
[V:3] z8 | 
[V:4] A,G,F,4E,2 | 
[V:1] z8 | 
[V:2] z2c3ABc | 
[V:3] z8 | 
[V:4] F,4z4 | 
[V:1] z8 | 
[V:2] d2c2f3e | 
[V:3] z8 | 
[V:4] z2A,3F,G,A, | 
[V:1] z8 | 
[V:2] d2c2f3e | 
[V:3] z8 | 
[V:4] _B,2A,3F,G,A, | 
[V:1] z8 | 
[V:2] d2c4e2 | 
[V:3] z8 | 
[V:4] _B,2A,2C3B, | 
[V:1] z8 | 
[V:2] f2g4e2 | 
[V:3] z8 | 
[V:4] A,2G,2C3_B, | 
[V:1] z8 | 
[V:2] f2g3fed | 
[V:3] z8 | 
[V:4] A,2G,2C3_B, | 
[V:1] z8 | 
[V:2] c2f4e2 | 
[V:3] z8 | 
[V:4] A,2G,F,G,4 | 
[V:1] z8 ||  
[V:2] f8 ||  
[V:3] z8 ||  
[V:4] F,8 ||  
[V:1]  [K:C] [K:clef=treble][M:2/1]A8 | 
[V:2]  [K:C] [K:clef=treble-8][M:2/1]f8 | 
[V:3]  [K:C] [K:clef=treble-8][M:2/1]c8- | 
[V:4]  [K:C] [K:clef=bass][M:2/1]F,8 | 
[V:1] A4G4 | 
[V:2] f4e4 | 
[V:3] c8 | 
[V:4] F,4C,4- | 
[V:1] E4E2G2- | 
[V:2] g6fe | 
[V:3] c8 | 
[V:4] C,2D,2E,2C,2 | 
[V:1] G2FED4 | 
[V:2] d4z2g2- | 
[V:3] B8- | 
[V:4] G,8- | 
[V:1] z2d4d2 | 
[V:2] g2g2d2g2- | 
[V:3] B8 | 
[V:4] G,8 | 
[V:1] G8 | 
[V:2] g2fed4 | 
[V:3] B8 | 
[V:4] z2G,4G,2 | 
[V:1] z2c4c2 | 
[V:2] e4z2g2- | 
[V:3] c8 | 
[V:4] C,8 | 
[V:1] B2AGB4 | 
[V:2] g2g2d2g2- | 
[V:3] d8- | 
[V:4] z2G,4G,2 | 
[V:1] A4G4 | 
[V:2] g2^f2g4 | 
[V:3] d8 | 
[V:4] D,4G,4- | 
[V:1] z2d4d2 | 
[V:2] z2g2f2a2- | 
[V:3] d8- | 
[V:4] G,2F,E,D,3E, | 
[V:1] A2d4B2 | 
[V:2] a2g2a2g2 | 
[V:3] d8 | 
[V:4] F,2G,2F,2G,2 | 
[V:1] cBAGA4 | 
[V:2] e2c2f4 | 
[V:3] c8- | 
[V:4] C,2F,4E,D, | 
[V:1] z2G4E2 | 
[V:2] e8 | 
[V:3] c8 | 
[V:4] C,8 | 
[V:1] FEDCD4 | 
[V:2] z4g4 | 
[V:3] A4B4 | 
[V:4] z4G,4 | 
[V:1] C4z4 | 
[V:2] e2a4g2- | 
[V:3] c8 | 
[V:4] A,3G,F,2E,2 | 
[V:1] z4G4 | 
[V:2] gff4e2 | 
[V:3] F4G4 | 
[V:4] D,4C,4 | 
[V:1] A4c4- | 
[V:2] f8 | 
[V:3] F8 | 
[V:4] z2C4B,2 | 
[V:1] c2B2A2G2 | 
[V:2] z8 | 
[V:3] z4c4 | 
[V:4] A,2G,2F,2E,2 | 
[V:1] F2E2D4 | 
[V:2] a4_b2a2- | 
[V:3] d8- | 
[V:4] D,8- | 
[V:1] z4A4 | 
[V:2] a2g4^f2 | 
[V:3] d8 | 
[V:4] D,8 | 
[V:1] B2d3cBA | 
[V:2] g4z2f2 | 
[V:3] d8 | 
[V:4] G,4D,4 | 
[V:1] G4z4 | 
[V:2] g3fd2g2- | 
[V:3] B8 | 
[V:4] E,2G,3F,E,D, | 
[V:1] z4G2G2 | 
[V:2] g2f3de2 | 
[V:3] c8- | 
[V:4] C,2F,2C,4 | 
[V:1] A2c4B2 | 
[V:2] A4F4 | 
[V:3] c8 | 
[V:4] C3B,A,2G,2 | 
[V:1] A2G2F2E2 | 
[V:2] c4d4- | 
[V:3] f8- | 
[V:4] F,2E,2D,4- | 
[V:1] D2d3cA2 | 
[V:2] d2cBA2d2 | 
[V:3] f8 | 
[V:4] D,4D,4 | 
[V:1] (3:2:5B4G2B2c2d2 | 
[V:2] G4z4 | 
[V:3] d8 | 
[V:4] G,4G,4 | 
[V:1] G4z2G2- | 
[V:2] (3:2:5G4c2G2A2B2 | 
[V:3] e8 | 
[V:4] (3:2:5E,4C,2E,2F,2G,2 | 
[V:1] G2c4A2- | 
[V:2] c3BG2F2 | 
[V:3] e4c4 | 
[V:4] C,3D,E,2F,2- | 
[V:1] A2d4B2- | 
[V:2] A4d4 | 
[V:3] f6d2 | 
[V:4] F,2D,4G,2- | 
[V:1] B2e3dcB | 
[V:2] G4g4 | 
[V:3] e4c3d | 
[V:4] G,2C,4C2- | 
[V:1] AGc4B2 | 
[V:2] a4g4 | 
[V:3] e2f2d4 | 
[V:4] C2F,2G,4 | 
[V:1] c4z4 | 
[V:2] e2a3gfe | 
[V:3] c8 | 
[V:4] C,2F,3G,A,B, | 
[V:1] z4G4 | 
[V:2] dcf4e2 | 
[V:3] z8 | 
[V:4] C2A,2G,4 | 
[V:1] A2c4BA | 
[V:2] f2a4gf | 
[V:3] c8- | 
[V:4] F,8 | 
[V:1] G2A4GF | 
[V:2] e2f3gaf | 
[V:3] c8 | 
[V:4] z4F,4 | 
[V:1] E2G2F2G2 | 
[V:2] g4z2g2- | 
[V:3] c8- | 
[V:4] C,D,E,C,F,2E,2 | 
[V:1] E4z4 | 
[V:2] g2e2f2g2 | 
[V:3] c8 | 
[V:4] C,4z4 | 
[V:1] z2G2F2G2 | 
[V:2] e4z2g2- | 
[V:3] c8 | 
[V:4] z2E,2F,2E,2 | 
[V:1] E2G2A2G2 | 
[V:2] g2e2f2g2 | 
[V:3] z2c2A2B2 | 
[V:4] C,4z2G,2 | 
[V:1] C2G2A2c2- | 
[V:2] e4f4- | 
[V:3] c3BAGF2- | 
[V:4] A,2C3B,A,G, | 
[V:1] cBAGA2GF | 
[V:2] f2edc4- | 
[V:3] F2A3Bc2- | 
[V:4] F,6E,D, | 
[V:1] G2F4E2 | 
[V:2] c8 | 
[V:3] cBA2G4 | 
[V:4] E,2F,2C,4 | 
[V:1] F8- | 
[V:2] d4c4 | 
[V:3] F8- | 
[V:4] F,8- | 
[V:1] F8 ||  
[V:2] c8 ||  
[V:3] F8 ||  
[V:4] F,8 ||  
[V:1]  [K:C] [K:clef=treble][M:2/1]F4F4 | 
[V:2]  [K:C] [K:clef=treble-8][M:2/1]z8 | 
[V:3]  [K:C] [K:clef=treble-8][M:2/1]z8 | 
[V:4]  [K:C] [K:clef=bass][M:2/1]z8 | 
[V:1] A4G4 | 
[V:2] c4c4 | 
[V:3] z8 | 
[V:4] z8 | 
[V:1] z2c4B2- | 
[V:2] e8 | 
[V:3] z8 | 
[V:4] z8 | 
[V:1] B2AGA4 | 
[V:2] d8 | 
[V:3] z8 | 
[V:4] z8 | 
[V:1] z2d4c2- | 
[V:2] z2f4e2- | 
[V:3] z8 | 
[V:4] z8 | 
[V:1] c2BAB4 | 
[V:2] e2dcd4 | 
[V:3] z8 | 
[V:4] z8 | 
[V:1] c4z2G2 | 
[V:2] c8 | 
[V:3] z8 | 
[V:4] z8 | 
[V:1] A2B2c2d2 | 
[V:2] z2G2A2BA | 
[V:3] z8 | 
[V:4] z8 | 
[V:1] dcBAG4 | 
[V:2] Bcd2e2c2 | 
[V:3] z8 | 
[V:4] z8 | 
[V:1] z2G2A2B2 | 
[V:2] d2e2f2g2- | 
[V:3] z8 | 
[V:4] z8 | 
[V:1] c2d4cB | 
[V:2] g2fed2g2- | 
[V:3] z8 | 
[V:4] z8 | 
[V:1] A4z2G2- | 
[V:2] g2^f2g4 | 
[V:3] z8 | 
[V:4] z8 | 
[V:1] GABcd2GA | 
[V:2] z2G3ABc | 
[V:3] z8 | 
[V:4] z8 | 
[V:1] Bcd2G2c2 | 
[V:2] d2G2cdef | 
[V:3] z8 | 
[V:4] z8 | 
[V:1] B2A3GFE | 
[V:2] g2c2fedc | 
[V:3] z8 | 
[V:4] z8 | 
[V:1] F2E2DCD2 | 
[V:2] d2c3BB2 | 
[V:3] z8 | 
[V:4] z8 | 
[V:1] E6C2 | 
[V:2] c8- | 
[V:3] z8 | 
[V:4] z8 | 
[V:1] C8 ||  
[V:2] c8 ||  
[V:3] z8 ||  
[V:4] z8 ||  
[V:1]  [K:C] [K:clef=treble][M:2/1]z8 | 
[V:2]  [K:C] [K:clef=treble-8][M:2/1]z8 | 
[V:3]  [K:C] [K:clef=treble-8][M:2/1]c4d2f2- | 
[V:4]  [K:C] [K:clef=bass][M:2/1]z4F,4- | 
[V:1] z8 | 
[V:2] z8 | 
[V:3] f2e2d2cB | 
[V:4] F,4F,4 | 
[V:1] z8 | 
[V:2] z8 | 
[V:3] A4G3A | 
[V:4] F,4G,2_B,2- | 
[V:1] z8 | 
[V:2] z8 | 
[V:3] _Bcd2G2c2- | 
[V:4] B,A,G,F,G,2E,2 | 
[V:1] z8 | 
[V:2] z8 | 
[V:3] c2B2c4 | 
[V:4] D,4C,2F,2- | 
[V:1] z8 | 
[V:2] z8 | 
[V:3] z4c4- | 
[V:4] F,2E,2F,2G,2 | 
[V:1] z8 | 
[V:2] z8 | 
[V:3] c4c4- | 
[V:4] A,2F,4E,2 | 
[V:1] z8 | 
[V:2] z8 | 
[V:3] c2B2c2d2 | 
[V:4] F,2G,2A,2F,2 | 
[V:1] z8 | 
[V:2] z8 | 
[V:3] e2cBcdef | 
[V:4] G,2A,4G,F, | 
[V:1] z8 | 
[V:2] z8 | 
[V:3] g2f4e2 | 
[V:4] E,2F,2G,4 | 
[V:1] z8 | 
[V:2] z8 | 
[V:3] f3ed2c2- | 
[V:4] F,4z2F,2 | 
[V:1] z8 | 
[V:2] z8 | 
[V:3] c2BAG2c2 | 
[V:4] E,2F,4E,2 | 
[V:1] z8 | 
[V:2] z8 | 
[V:3] A2F2z2c2- | 
[V:4] F,2C2A,2F,2 | 
[V:1] z8 | 
[V:2] z8 | 
[V:3] cBAGF2c2- | 
[V:4] z2C3B,A,G, | 
[V:1] z8 | 
[V:2] z8 | 
[V:3] c2c2d2f2- | 
[V:4] F,2E,2D,4 | 
[V:1] z8 | 
[V:2] z8 | 
[V:3] f2e2d4 | 
[V:4] C,4z2F,2- | 
[V:1] z8 | 
[V:2] z8 | 
[V:3] c2f2e2d2- | 
[V:4] F,2F,2G,2_B,2- | 
[V:1] z8 | 
[V:2] z8 | 
[V:3] dcBAB2c2- | 
[V:4] B,A,G,F,G,2A,2- | 
[V:1] z8 | 
[V:2] z8 | 
[V:3] cBA2G4 | 
[V:4] A,G,F,4E,2 | 
[V:1] z8 ||  
[V:2] z8 ||  
[V:3] F8 ||  
[V:4] F,8 ||  



